assets/images/payment-method-icons/unionpay.svg

<svg fill="none" height="35" viewBox="0 0 52 35" width="52" xmlns="http://www.w3.org/2000/svg"><rect fill="#fff" height="34" rx="3.5" stroke="#f3f3f3" width="50" x=".878906" y=".5"/><g clip-rule="evenodd" fill-rule="evenodd"><path d="m44.0545 5.25735-9.7192-.00247c-.0012 0-.0025 0-.0025 0-.0075 0-.0149.00132-.0222.00132-1.3352.04021-2.9982 1.09295-3.301 2.39106l-4.5964 19.99284c-.3028 1.3102.5211 2.3764 1.8467 2.396h10.2104c1.3053-.0635 2.5737-1.1041 2.8714-2.3875l4.5965-19.99296c.3077-1.32356-.5362-2.39829-1.8837-2.39829z" fill="#01798a"/><path d="m26.4134 27.6401 4.5963-19.99281c.3029-1.29812 1.9658-2.35086 3.301-2.39107l-3.8643-.00246-6.9624-.00132c-1.3389.02692-3.0235 1.08705-3.3263 2.39485l-4.5976 19.99281c-.304 1.3102.5212 2.3764 1.8458 2.396h10.8541c-1.3255-.0196-2.1495-1.0858-1.8466-2.396" fill="#024381"/><path d="m15.5602 27.64 4.5976-19.99286c.3028-1.3078 1.9874-2.36792 3.3263-2.39484l-8.9192-.0023c-1.3464 0-3.0726 1.07227-3.3803 2.39714l-4.59766 19.99286c-.02798.122-.0435.2415-.05276.3586v.3709c.09.9551.83201 1.6506 1.8986 1.6665h8.97322c-1.3246-.0197-2.1498-1.0858-1.8458-2.396z" fill="#dd0228"/><path d="m23.6716 19.8205h.1688c.1551 0 .2595-.0512.3084-.1525l.4386-.6453h1.1746l-.2449.4245h1.4083l-.1787.6503h-1.6758c-.193.2854-.4306.4196-.7162.4037h-.8729zm-.1928.9322h3.0855l-.1967.7064h-1.2408l-.1894.6818h1.2075l-.1967.7064h-1.2075l-.2805 1.0075c-.0694.1684.0219.2442.2725.227h.9841l-.1823.6564h-1.8894c-.3581 0-.481-.2014-.3686-.6051l.3586-1.2858h-.7718l.196-.7064h.772l.1892-.6818h-.7378zm4.9247-1.7347-.0485.4135s.582-.4295 1.1106-.4295h1.9533l-.747 2.6581c-.0619.3039-.3276.455-.7967.455h-2.214l-.5186 1.8666c-.0298.1.0124.1513.1241.1513h.4356l-.1601.5794h-1.1075c-.4251 0-.6019-.1257-.5317-.3781l1.4654-5.3163zm1.6541.7513h-1.7435l-.2085.7173s.2903-.2061.7755-.2135c.4839-.0074 1.0362 0 1.0362 0zm-.6315 1.664c.1289.0171.201-.033.2097-.1513l.1067-.3781h-1.7461l-.1464.5294zm-1.1778.8588h1.0064l-.0187.4282h.268c.1354 0 .2025-.0427.2025-.1268l.0793-.2769h.8365l-.1117.4037c-.0945.3367-.345.5124-.752.5296h-.5361l-.0025.7318c-.0099.1172.098.177.32.177h.5039l-.1626.5794h-1.2086c-.3388.0159-.5049-.1428-.5014-.4794z" fill="#fff"/><path d="m16.0529 15.4764c-.1365.6575-.4529 1.1626-.9438 1.5212-.4864.3526-1.1137.5294-1.8818.5294-.7229 0-1.2528-.1805-1.5909-.5429-.2346-.2574-.3512-.5843-.3512-.9796 0-.1634.0199-.3391.0596-.5281l.8183-3.8792h1.236l-.8072 3.8353c-.0248.1061-.0348.2049-.0335.294-.0013.1964.0484.3574.1489.483.1464.1867.3841.2794.7148.2794.3803 0 .6937-.0915.9369-.2757.2432-.183.402-.4428.4734-.7807l.8098-3.8353h1.2297z" fill="#fff"/><path d="m21.2436 13.9502h.968l-.7582 3.4621h-.9661zm.3046-1.2612h.9766l-.1824.8403h-.9765z" fill="#fff"/><path d="m23.0688 17.1487c-.2532-.2378-.381-.5587-.3823-.9661 0-.0696.0043-.1488.0137-.2355.0093-.0879.0212-.1732.0378-.2525.1148-.5623.3593-1.0088.7359-1.3382.376-.3306.8297-.4965 1.3608-.4965.4349 0 .7798.1195 1.0325.3586.2524.2404.379.5648.379.9772 0 .0707-.0055.1524-.0149.2403-.0112.089-.0247.1744-.0404.2586-.1122.5538-.356.9954-.7326 1.3188-.3767.3257-.829.4878-1.3564.4878-.4368 0-.7806-.1171-1.0331-.3525m1.8448-.6856c.1707-.1817.2929-.4575.3673-.8246.0112-.0573.0211-.1171.0273-.1769.0061-.0586.0086-.1134.0086-.1635 0-.2135-.0552-.3793-.1662-.4965-.1104-.1183-.2674-.1768-.4702-.1768-.2682 0-.4865.0926-.6577.2781-.1726.1855-.2948.466-.3718.8393-.0105.0573-.0192.1147-.0272.1708-.0062.0573-.008.111-.0069.1598 0 .2122.0553.3757.1663.4916.1104.1159.2667.1732.4722.1732.2693 0 .4877-.0915.6583-.2745z" fill="#fff"/><path d="m32.5262 19.8496.2334-.8075h1.1801l-.0509.2964s.603-.2964 1.0373-.2964h1.4593l-.2319.8075h-.2296l-1.1008 3.8086h.2296l-.2184.7564h-.2296l-.0955.3281h-1.1428l.0953-.3281h-2.2547l.2198-.7564h.2259l1.1017-3.8086zm1.2731.0002-.3004 1.0307s.5139-.1939.9569-.2487c.0978-.36.2257-.782.2257-.782zm-.4395 1.5139-.3013 1.0796s.5695-.2757.9603-.2989c.1129-.4173.2259-.7807.2259-.7807zm.221 2.2946.2259-.7832h-.8809l-.2271.7832zm2.8544-4.6661h1.1095l.0471.4024c-.0074.1025.0545.1514.1861.1514h.196l-.1983.6819h-.8155c-.3114.0158-.4715-.1012-.4863-.3538zm-.325 1.4626h3.5937l-.2109.732h-1.1442l-.1962.6805h1.1431l-.2122.7308h-1.2731l-.288.4283h.6231l.1439.8575c.0172.0854.0942.1269.2257.1269h.1935l-.2033.7062h-.6851c-.3549.0172-.5384-.0999-.5535-.3524l-.1651-.7832-.567.8332c-.1341.2354-.3401.3453-.6179.3281h-1.0462l.2035-.7064h.3264c.1341 0 .2456-.0585.3461-.1768l.8875-1.2614h-1.1442l.212-.7308h1.241l.1974-.6805h-1.2422z" fill="#fff"/><path d="m17.1915 13.9492h.873l-.0998.5001.1252-.1427c.283-.2976.6267-.4453 1.0325-.4453.3674 0 .6323.105.7986.316.1637.2111.2084.5026.1309.8771l-.4809 2.3593h-.8972l.4343-2.1385c.0448-.2208.0324-.3855-.0366-.4916-.0682-.1062-.1985-.1586-.3865-.1586-.2308 0-.425.0707-.5833.2111-.1588.1415-.2636.3379-.3152.5879l-.4002 1.9897h-.899z" fill="#fff"/><path d="m27.2021 13.9492h.8737l-.0991.5001.1239-.1427c.2831-.2976.6281-.4453 1.0326-.4453.3673 0 .6328.105.7978.316.1627.2111.2098.5026.1304.8771l-.4791 2.3593h-.8984l.4345-2.1385c.0445-.2208.0322-.3855-.0361-.4916-.0708-.1062-.1987-.1586-.3859-.1586-.2309 0-.4244.0707-.5845.2111-.1589.1415-.2643.3379-.3139.5879l-.402 1.9897h-.898z" fill="#fff"/><path d="m31.5212 11.8018h2.5365c.4877 0 .8648.1086 1.1241.322.2582.216.3874.5259.3874.9296v.0122c0 .0768-.0052.1634-.0125.2573-.0126.0928-.0288.1866-.0496.2843-.1117.5343-.3712.9638-.7719 1.2895-.4022.3244-.8785.4879-1.427.4879h-1.3603l-.4205 2.0287h-1.1778zm.6342 2.6069h1.1281c.2941 0 .5273-.0672.6974-.2001.1688-.1342.2805-.3391.3425-.6172.0098-.0514.016-.0977.0235-.1404.0039-.0402.0087-.0806.0087-.1195 0-.1989-.0718-.3428-.2159-.4331-.1439-.0916-.3696-.1354-.6825-.1354h-.9581z" fill="#fff"/><path d="m40.8406 18.0833c-.3723.7782-.7271 1.2319-.9355 1.443-.2087.2087-.6218.6942-1.617.6576l.0856-.5941c.8375-.2537 1.2905-1.3969 1.5486-1.9031l-.3077-3.728.6478-.0085h.5435l.0584 2.3386 1.0186-2.3386h1.0314z" fill="#fff"/><path d="m37.9561 14.232-.4097.277c-.4281-.3294-.819-.5331-1.5733-.1891-1.0277.4684-1.8863 4.0611.943 2.8777l.1613.1879 1.1131.028.731-3.2644zm-.6328 1.7848c-.1788.5185-.5782.8613-.8909.7637-.3128-.0952-.4244-.5954-.2433-1.115.1787-.5197.5807-.8613.8909-.7637.3127.0952.4256.5953.2433 1.115z" fill="#fff"/><path d="m34.3328 5.26107-3.8865-.00765 3.8643.01639c.0074 0 .0147-.00874.0222-.00874" fill="#e02f41"/><path d="m30.4467 5.27406-6.9089-.02406c-.0174 0-.0354.00765-.0534.01531z" fill="#2e4f7d"/></g></svg>

<svg
	width="52"
	height="35"
	viewBox="0 0 52 35"
	fill="none"
	xmlns="http://www.w3.org/2000/svg"
>
	<rect
		x="0.878906"
		y="0.5"
		width="50"
		height="34"
		rx="3.5"
		fill="white"
		stroke="#F3F3F3"
	/>
	<path
			fill-rule="evenodd"
		clip-rule="evenodd"
		d="M44.0545 5.25735L34.3353 5.25488C34.3341 5.25488 34.3328 5.25488 34.3328 5.25488C34.3253 5.25488 34.3179 5.2562 34.3106 5.2562C32.9754 5.29641 31.3124 6.34915 31.0096 7.64726L26.4132 27.6401C26.1104 28.9503 26.9343 30.0165 28.2599 30.0361H38.4703C39.7756 29.9726 41.044 28.932 41.3417 27.6486L45.9382 7.65564C46.2459 6.33208 45.402 5.25735 44.0545 5.25735Z"
		fill="#01798A"
	/>
	<path
			fill-rule="evenodd"
		clip-rule="evenodd"
		d="M26.4134 27.6401L31.0097 7.64729C31.3126 6.34917 32.9755 5.29643 34.3107 5.25622L30.4464 5.25376L23.484 5.25244C22.1451 5.27936 20.4605 6.33949 20.1577 7.64729L15.5601 27.6401C15.2561 28.9503 16.0813 30.0165 17.4059 30.0361H28.26C26.9345 30.0165 26.1105 28.9503 26.4134 27.6401"
		fill="#024381"
	/>
	<path
			fill-rule="evenodd"
		clip-rule="evenodd"
		d="M15.5602 27.64L20.1578 7.64714C20.4606 6.33934 22.1452 5.27922 23.4841 5.2523L14.5649 5.25C13.2185 5.25 11.4923 6.32227 11.1846 7.64714L6.58694 27.64C6.55896 27.762 6.54344 27.8815 6.53418 27.9986V28.3695C6.62418 29.3246 7.36619 30.0201 8.43278 30.036H17.406C16.0814 30.0163 15.2562 28.9502 15.5602 27.64Z"
		fill="#DD0228"
	/>
	<path
			fill-rule="evenodd"
		clip-rule="evenodd"
		d="M23.6716 19.8205H23.8404C23.9955 19.8205 24.0999 19.7693 24.1488 19.668L24.5874 19.0227H25.762L25.5171 19.4472H26.9254L26.7467 20.0975H25.0709C24.8779 20.3829 24.6403 20.5171 24.3547 20.5012H23.4818L23.6716 19.8205H23.6716ZM23.4788 20.7527H26.5643L26.3676 21.4591H25.1268L24.9374 22.1409H26.1449L25.9482 22.8473H24.7407L24.4602 23.8548C24.3908 24.0232 24.4821 24.099 24.7327 24.0818H25.7168L25.5345 24.7382H23.6451C23.287 24.7382 23.1641 24.5368 23.2765 24.1331L23.6351 22.8473H22.8633L23.0593 22.1409H23.8313L24.0205 21.4591H23.2827L23.4788 20.7527H23.4788ZM28.4035 19.018L28.355 19.4315C28.355 19.4315 28.937 19.002 29.4656 19.002H31.4189L30.6719 21.6601C30.61 21.964 30.3443 22.1151 29.8752 22.1151H27.6612L27.1426 23.9817C27.1128 24.0817 27.155 24.133 27.2667 24.133H27.7023L27.5422 24.7124H26.4347C26.0096 24.7124 25.8328 24.5867 25.903 24.3343L27.3684 19.018H28.4035H28.4035ZM30.0576 19.7693H28.3141L28.1056 20.4866C28.1056 20.4866 28.3959 20.2805 28.8811 20.2731C29.365 20.2657 29.9173 20.2731 29.9173 20.2731L30.0576 19.7693ZM29.4261 21.4333C29.555 21.4504 29.6271 21.4003 29.6358 21.282L29.7425 20.9039H27.9964L27.85 21.4333H29.4261ZM28.2483 22.2921H29.2547L29.236 22.7203H29.504C29.6394 22.7203 29.7065 22.6776 29.7065 22.5935L29.7858 22.3166H30.6223L30.5106 22.7203C30.4161 23.057 30.1656 23.2327 29.7586 23.2499H29.2225L29.22 23.9817C29.2101 24.0989 29.318 24.1587 29.54 24.1587H30.0439L29.8813 24.7381H28.6727C28.3339 24.754 28.1678 24.5953 28.1713 24.2587L28.2483 22.2921V22.2921Z"
		fill="white"
	/>
	<path
			fill-rule="evenodd"
		clip-rule="evenodd"
		d="M16.0529 15.4764C15.9164 16.1339 15.6 16.639 15.1091 16.9976C14.6227 17.3502 13.9954 17.527 13.2273 17.527C12.5044 17.527 11.9745 17.3465 11.6364 16.9841C11.4018 16.7267 11.2852 16.3998 11.2852 16.0045C11.2852 15.8411 11.3051 15.6654 11.3448 15.4764L12.1631 11.5972H13.3991L12.5919 15.4325C12.5671 15.5386 12.5571 15.6374 12.5584 15.7265C12.5571 15.9229 12.6068 16.0839 12.7073 16.2095C12.8537 16.3962 13.0914 16.4889 13.4221 16.4889C13.8024 16.4889 14.1158 16.3974 14.359 16.2132C14.6022 16.0302 14.761 15.7704 14.8324 15.4325L15.6422 11.5972H16.8719L16.0529 15.4764Z"
		fill="white"
	/>
	<path
			fill-rule="evenodd"
		clip-rule="evenodd"
		d="M21.2436 13.9502H22.2116L21.4534 17.4123H20.4873L21.2436 13.9502ZM21.5482 12.689H22.5248L22.3424 13.5293H21.3659L21.5482 12.689Z"
		fill="white"
	/>
	<path
			fill-rule="evenodd"
		clip-rule="evenodd"
		d="M23.0688 17.1487C22.8156 16.9109 22.6878 16.59 22.6865 16.1826C22.6865 16.113 22.6908 16.0338 22.7002 15.9471C22.7095 15.8592 22.7214 15.7739 22.738 15.6946C22.8528 15.1323 23.0973 14.6858 23.4739 14.3564C23.8499 14.0258 24.3036 13.8599 24.8347 13.8599C25.2696 13.8599 25.6145 13.9794 25.8672 14.2185C26.1196 14.4589 26.2462 14.7833 26.2462 15.1957C26.2462 15.2664 26.2407 15.3481 26.2313 15.436C26.2201 15.525 26.2066 15.6104 26.1909 15.6946C26.0787 16.2484 25.8349 16.69 25.4583 17.0134C25.0816 17.3391 24.6293 17.5012 24.1019 17.5012C23.6651 17.5012 23.3213 17.3841 23.0688 17.1487M24.9136 16.4631C25.0843 16.2814 25.2065 16.0056 25.2809 15.6385C25.2921 15.5812 25.302 15.5214 25.3082 15.4616C25.3143 15.403 25.3168 15.3482 25.3168 15.2981C25.3168 15.0846 25.2616 14.9188 25.1506 14.8016C25.0402 14.6833 24.8832 14.6248 24.6804 14.6248C24.4122 14.6248 24.1939 14.7174 24.0227 14.9029C23.8501 15.0884 23.7279 15.3689 23.6509 15.7422C23.6404 15.7995 23.6317 15.8569 23.6237 15.913C23.6175 15.9703 23.6157 16.024 23.6168 16.0728C23.6168 16.285 23.6721 16.4485 23.7831 16.5644C23.8935 16.6803 24.0498 16.7376 24.2553 16.7376C24.5246 16.7376 24.743 16.6461 24.9136 16.4631Z"
		fill="white"
	/>
	<path
			fill-rule="evenodd"
		clip-rule="evenodd"
		d="M32.5262 19.8496L32.7596 19.0421H33.9397L33.8888 19.3385C33.8888 19.3385 34.4918 19.0421 34.9261 19.0421C35.3606 19.0421 36.3854 19.0421 36.3854 19.0421L36.1535 19.8496H35.9239L34.8231 23.6582H35.0527L34.8343 24.4146H34.6047L34.5092 24.7427H33.3664L33.4617 24.4146H31.207L31.4268 23.6582H31.6527L32.7544 19.8496H32.5262H32.5262ZM33.7993 19.8498L33.4989 20.8805C33.4989 20.8805 34.0128 20.6866 34.4558 20.6318C34.5536 20.2718 34.6815 19.8498 34.6815 19.8498H33.7993V19.8498ZM33.3598 21.3637L33.0585 22.4433C33.0585 22.4433 33.628 22.1676 34.0188 22.1444C34.1317 21.7271 34.2447 21.3637 34.2447 21.3637H33.3598V21.3637ZM33.5808 23.6583L33.8067 22.8751H32.9258L32.6987 23.6583H33.5808ZM36.4352 18.9922H37.5447L37.5918 19.3946C37.5844 19.4971 37.6463 19.546 37.7779 19.546H37.9739L37.7756 20.2279H36.9601C36.6487 20.2437 36.4886 20.1267 36.4738 19.8741L36.4352 18.9922ZM36.1102 20.4548H39.7039L39.493 21.1868H38.3488L38.1526 21.8673H39.2957L39.0835 22.5981H37.8104L37.5224 23.0264H38.1455L38.2894 23.8839C38.3066 23.9693 38.3836 24.0108 38.5151 24.0108H38.7086L38.5053 24.717H37.8202C37.4653 24.7342 37.2818 24.6171 37.2667 24.3646L37.1016 23.5814L36.5346 24.4146C36.4005 24.65 36.1945 24.7599 35.9167 24.7427H34.8705L35.074 24.0363H35.4004C35.5345 24.0363 35.646 23.9778 35.7465 23.8595L36.634 22.5981H35.4898L35.7018 21.8673H36.9428L37.1402 21.1868H35.898L36.1102 20.4548Z"
		fill="white"
	/>
	<path
			fill-rule="evenodd"
		clip-rule="evenodd"
		d="M17.1915 13.9492H18.0645L17.9647 14.4493L18.0899 14.3066C18.3729 14.009 18.7166 13.8613 19.1224 13.8613C19.4898 13.8613 19.7547 13.9663 19.921 14.1773C20.0847 14.3884 20.1294 14.6799 20.0519 15.0544L19.571 17.4137H18.6738L19.1081 15.2752C19.1529 15.0544 19.1405 14.8897 19.0715 14.7836C19.0033 14.6774 18.873 14.625 18.685 14.625C18.4542 14.625 18.26 14.6957 18.1017 14.8361C17.9429 14.9776 17.8381 15.174 17.7865 15.424L17.3863 17.4137H16.4873L17.1915 13.9492Z"
		fill="white"
	/>
	<path
			fill-rule="evenodd"
		clip-rule="evenodd"
		d="M27.2021 13.9492H28.0758L27.9767 14.4493L28.1006 14.3066C28.3837 14.009 28.7287 13.8613 29.1332 13.8613C29.5005 13.8613 29.766 13.9663 29.931 14.1773C30.0937 14.3884 30.1408 14.6799 30.0614 15.0544L29.5823 17.4137H28.6839L29.1184 15.2752C29.1629 15.0544 29.1506 14.8897 29.0823 14.7836C29.0115 14.6774 28.8836 14.625 28.6964 14.625C28.4655 14.625 28.272 14.6957 28.1119 14.8361C27.953 14.9776 27.8476 15.174 27.798 15.424L27.396 17.4137H26.498L27.2021 13.9492"
		fill="white"
	/>
	<path
			fill-rule="evenodd"
		clip-rule="evenodd"
		d="M31.5212 11.8018H34.0577C34.5454 11.8018 34.9225 11.9104 35.1818 12.1238C35.44 12.3398 35.5692 12.6497 35.5692 13.0534V13.0656C35.5692 13.1424 35.564 13.229 35.5567 13.3229C35.5441 13.4157 35.5279 13.5095 35.5071 13.6072C35.3954 14.1415 35.1359 14.571 34.7352 14.8967C34.333 15.2211 33.8567 15.3846 33.3082 15.3846H31.9479L31.5274 17.4133H30.3496L31.5212 11.8018M32.1554 14.4087H33.2835C33.5776 14.4087 33.8108 14.3415 33.9809 14.2086C34.1497 14.0744 34.2614 13.8695 34.3234 13.5914C34.3332 13.54 34.3394 13.4937 34.3469 13.451C34.3508 13.4108 34.3556 13.3704 34.3556 13.3315C34.3556 13.1326 34.2838 12.9887 34.1397 12.8984C33.9958 12.8068 33.7701 12.763 33.4572 12.763H32.4991L32.1554 14.4087"
		fill="white"
	/>
	<path
			fill-rule="evenodd"
		clip-rule="evenodd"
		d="M40.8406 18.0833C40.4683 18.8615 40.1135 19.3152 39.9051 19.5263C39.6964 19.735 39.2833 20.2205 38.2881 20.1839L38.3737 19.5898C39.2112 19.3361 39.6642 18.1929 39.9223 17.6867L39.6146 13.9587L40.2624 13.9502H40.8059L40.8643 16.2888L41.8829 13.9502H42.9143L40.8406 18.0833Z"
		fill="white"
	/>
	<path
			fill-rule="evenodd"
		clip-rule="evenodd"
		d="M37.9561 14.232L37.5464 14.509C37.1183 14.1796 36.7274 13.9759 35.9731 14.3199C34.9454 14.7883 34.0868 18.381 36.9161 17.1976L37.0774 17.3855L38.1905 17.4135L38.9215 14.1491L37.9561 14.232M37.3233 16.0168C37.1445 16.5353 36.7451 16.8781 36.4324 16.7805C36.1196 16.6853 36.008 16.1851 36.1891 15.6655C36.3678 15.1458 36.7698 14.8042 37.08 14.9018C37.3927 14.997 37.5056 15.4971 37.3233 16.0168Z"
		fill="white"
	/>
	<path
			fill-rule="evenodd"
		clip-rule="evenodd"
		d="M34.3328 5.26107L30.4463 5.25342L34.3106 5.26981C34.318 5.26981 34.3253 5.26107 34.3328 5.26107"
		fill="#E02F41"
	/>
	<path
		fill-rule="evenodd"
		clip-rule="evenodd"
		d="M30.4467 5.27406L23.5378 5.25C23.5204 5.25 23.5024 5.25765 23.4844 5.26531L30.4467 5.27406"
		fill="#2E4F7D"
	/>
</svg>
